X:1
T:Der evangelische Kirchenchor
T:Jesu, großer Wunderstern
T:Max Reger
T:Text: Erdmann Neumeister
T:Jesu, großer Wunderstern
T:Nr. 7 aus Der evangelische Kirchenchor, WoO VI/17 
T:CPDL - Creative Commons Attribution Non Commercial 3.0
T:CPDL - Creative Commons Attribution Non Commercial 3.0
C:Max Reger
Z:Erdmann Neumeister
Z:CPDL - Creative Commons Attribution Non Commercial 3.0
%%score [ ( 1 2 ) ( 3 4 ) ]
L:1/8
Q:1/4=80
M:4/4
K:Db
V:1 treble nm="Sopran\nAlt"
V:2 treble 
V:3 bass nm="Tenor\nBass"
V:4 bass 
V:1
!p!"^Mäßig bewegt"!<(! A2 F2 B2!<)! c2 | d2!>(! d2 c4!>)! |!<(! B2 d2!<)! A2 F2 | %3
w: 1.~Je- su, gro- ßer|Wun- der- stern,|der aus Ja- kob|
w: 2.~Nimm das Gold des|Glau- bens hin,|wie ich´s von dir|
w: 3.~Nimm den Weih- rauch|des Ge- bets,|lass den- sel- ben|
w: 4.~Nimm die Myr- rhen|bitt- rer Reu.|Ach mich schmer- zet|
 G2!>(! F2 E4!>)! | D8 |!p!!<(! A2 F2 B2!<)! c2 | d2!>(! d2 c4!>)! |!<(! B2 d2!<)! A2 F2 | %8
w: ist er- schie-|nen,|mei- ne See- le|will so gern|dir an dei- nem|
w: sel- ber ha-|be|und da- mit be-|schen- ket bin;|so ist dir´s die|
w: dir ge- nü-|gen.|Herz und Lip- pen|sol- len stets,|ihn zu op- fern,|
w: mei- ne Sün-|de!|A- ber du bist|fromm und treu,|dass ich Trost und|
 G2!>(! F2 E4!>)! | D8 |"^meno"!p!!<(! F2 =G2 =A2 B2 | B2!<)! =A2!>(! B4!>)! | %12
w: Fes- te die-|nen.|Nimm doch, nimm doch|gnä- dig an,|
w: liebs- te Ga-|be.|Lass es auch be-|währt und rein|
w: vor dir lie-|gen.|Wenn ich be- te,|nimm es auf|
w: Gna- de fin-|de|und nun fröh- lich|spre- chen kann:|
!p!!<(! d2 e2!<)! f2 f2 |[Q:1/4=72]"^poco rit."!>(! e2 e2!>)!!pp! !fermata!d4 |] %14
w: was ich Ar- mer|schen- ken kann.|
w: in der Glut des|Kreu- zes sein.|
w: und sprich Ja und|A- men drauf.|
w: Je- sus nimmt mein|Op- fer an.|
V:2
 F2 C2 E2 E2 | DE F2 F4 | D2 F2 E2 F2 | E2 D2 (D2 C2) | A,8 | F2 C2 E2 E2 | DE F2 F4 | %7
 D2 F2 E2 F2 | E2 D2 (D2 C2) | A,8 | D2 E2 E2 F2 | G2 F2 F4 | G2 G2 FG A2 | B2 AG F4 |] %14
V:3
 D2 A,2 G,2 A,2 | F,2 B,2 =A,4 | B,2 _A,2 C2 B,2 | B,2 A,2 (B,2 A,G,) | F,8 | D2 A,2 G,2 A,2 | %6
 F,2 B,2 =A,4 | B,2 _A,2 C2 B,2 | B,2 A,2 (B,2 A,G,) | F,8 | B,2 B,2 C2 B,2 | ED C2 D4 | %12
 B,2 C2 D2 D2 | D2 C2 D4 |] %14
V:4
 D,2 F,2 E,2 A,,2 | B,,2 D,E, F,4 | G,2 D,2 C,2 =D,2 | E,2 F,2 (G,2 A,2) | D,8 | D,2 F,2 E,2 A,,2 | %6
 B,,2 D,E, F,4 | G,2 D,2 C,2 =D,2 | E,2 F,2 (G,2 A,2) | D,8 | B,,2 E,2 C,2 D,2 | E,2 F,2 B,,4 | %12
 G,F, E,2 D,E, F,2 | G,2 A,2 !fermata![D,A,]4 |] %14

